; generated by PrusaSlicer 2.5.0+win64 on 2022-09-14 at 18:03:20 UTC

; 

; external perimeters extrusion width = 0.45mm
; perimeters extrusion width = 0.45mm
; infill extrusion width = 0.45mm
; solid infill extrusion width = 0.45mm
; top infill extrusion width = 0.40mm
; support material extrusion width = 0.35mm
; first layer extrusion width = 0.42mm

M73 P0 R113
M73 Q0 S113
M107
;TYPE:Custom
M115 U3.7.1 ; tell printer latest fw version
G90 ; use absolute coordinates
M83 ; extruder relative mode
M104 S205 ; set extruder temp
M140 S60 ; set bed temp
M190 S60 ; wait for bed temp
M109 S205 ; wait for extruder temp
G28 W ; home all without mesh bed level
G80 ; mesh bed leveling
G1 Y-3.0 F1000.0 ; go outside print area
G92 E0.0
G1 X60.0 E9.0 F1000.0 ; intro line
G1 X100.0 E12.5 F1000.0 ; intro line
G92 E0.0
M221 S95
G21 ; set units to millimeters
G90 ; use absolute coordinates
M83 ; use relative distances for extrusion
M900 K30 ; Filament gcode
M107
;LAYER_CHANGE
;Z:0.2
;HEIGHT:0.2
;BEFORE_LAYER_CHANGE
G92 E0.0
;0.2


G1 E-.8 F2100
G1 Z.2 F10800
;AFTER_LAYER_CHANGE
;0.2
G1 X54.015 Y60.693
G1 E.8 F2100
M204 S1000
;TYPE:Skirt/Brim
;WIDTH:0.42
G1 F1200
G1 X55.06 Y59.817 E.04278
G1 X56 Y59.623 E.03008
G1 X194 Y59.623 E4.32689
G1 X195.307 Y60.015 E.04278
G1 X196.183 Y61.06 E.04278
G1 X196.377 Y62 E.03008
G1 X196.377 Y148 E2.69647
G1 X195.985 Y149.307 E.04278
G1 X194.94 Y150.183 E.04278
G1 X194 Y150.377 E.03008
G1 X56 Y150.377 E4.32689
G1 X54.693 Y149.985 E.04278
M73 P0 R112
M73 Q0 S112
G1 X53.817 Y148.94 E.04278
G1 X53.623 Y148 E.03008
G1 X53.623 Y62 E2.69647
G1 X53.997 Y60.75 E.0409
;WIPE_START
G1 F8640
G1 X55.06 Y59.817 E-.32671
G1 X56 Y59.623 E-.22155
G1 X56.917 Y59.623 E-.21174
;WIPE_END
G1 E-.04 F2100
G1 X56.787 Y62.787 F10800
G1 E.8 F2100
;TYPE:Perimeter
;WIDTH:0.419999
G1 F1200
G1 X193.213 Y62.787 E4.27753
G1 X193.213 Y147.213 E2.64711
G1 X56.787 Y147.213 E4.27753
G1 X56.787 Y62.847 E2.64523
G1 X56.41 Y62.41 F10800
;TYPE:External perimeter
G1 F1200
G1 X193.59 Y62.41 E4.30118
G1 X193.59 Y147.59 E2.67075
G1 X56.41 Y147.59 E4.30118
G1 X56.41 Y62.47 E2.66887
M73 P1 R112
M73 Q1 S112
G1 X56.803 Y62.484 F10800
;WIPE_START
G1 F8640
G1 X59.701 Y62.469 E-.76
;WIPE_END
G1 E-.04 F2100
G1 X192.337 Y62.9 F10800
G1 E.8 F2100
;TYPE:Solid infill
;WIDTH:0.420399
G1 F1200
G1 X192.93 Y63.494 E.02634
G1 X192.93 Y64.027 E.01676
G1 X191.973 Y63.07 E.04251
G1 X191.439 Y63.07 E.01676
G1 X192.93 Y64.561 E.0662
G1 X192.93 Y65.095 E.01676
G1 X190.905 Y63.07 E.0899
G1 X190.371 Y63.07 E.01676
G1 X192.93 Y65.629 E.11359
G1 X192.93 Y66.163 E.01676
G1 X189.837 Y63.07 E.13729
G1 X189.303 Y63.07 E.01676
G1 X192.93 Y66.697 E.16099
G1 X192.93 Y67.23 E.01676
G1 X188.77 Y63.07 E.18468
G1 X188.236 Y63.07 E.01676
G1 X192.93 Y67.764 E.20838
G1 X192.93 Y68.298 E.01676
G1 X187.702 Y63.07 E.23208
G1 X187.168 Y63.07 E.01676
G1 X192.93 Y68.832 E.25577
G1 X192.93 Y69.366 E.01676
G1 X186.634 Y63.07 E.27947
G1 X186.1 Y63.07 E.01676
G1 X192.93 Y69.9 E.30316
G1 X192.93 Y70.433 E.01676
G1 X185.567 Y63.07 E.32686
G1 X185.033 Y63.07 E.01676
G1 X192.93 Y70.967 E.35056
G1 X192.93 Y71.501 E.01676
G1 X184.499 Y63.07 E.37425
G1 X183.965 Y63.07 E.01676
G1 X192.93 Y72.035 E.39795
G1 X192.93 Y72.569 E.01676
G1 X183.431 Y63.07 E.42165
G1 X182.897 Y63.07 E.01676
G1 X192.93 Y73.103 E.44534
G1 X192.93 Y73.637 E.01676
G1 X182.363 Y63.07 E.46904
G1 X181.83 Y63.07 E.01676
M73 P1 R111
G1 X192.93 Y74.17 E.49273
G1 X192.93 Y74.704 E.01676
M73 Q1 S111
G1 X181.296 Y63.07 E.51643
G1 X180.762 Y63.07 E.01676
G1 X192.93 Y75.238 E.54013
G1 X192.93 Y75.772 E.01676
G1 X180.228 Y63.07 E.56382
G1 X179.694 Y63.07 E.01676
G1 X192.93 Y76.306 E.58752
G1 X192.93 Y76.84 E.01676
G1 X179.16 Y63.07 E.61122
G1 X178.627 Y63.07 E.01676
G1 X192.93 Y77.373 E.63491
G1 X192.93 Y77.907 E.01676
G1 X178.093 Y63.07 E.65861
G1 X177.559 Y63.07 E.01676
G1 X192.93 Y78.441 E.6823
G1 X192.93 Y78.975 E.01676
G1 X177.025 Y63.07 E.706
G1 X176.491 Y63.07 E.01676
G1 X192.93 Y79.509 E.7297
G1 X192.93 Y80.043 E.01676
G1 X175.957 Y63.07 E.75339
G1 X175.424 Y63.07 E.01676
G1 X192.93 Y80.576 E.77709
G1 X192.93 Y81.11 E.01676
G1 X174.89 Y63.07 E.80079
G1 X174.356 Y63.07 E.01676
G1 X192.93 Y81.644 E.82448
G1 X192.93 Y82.178 E.01676
G1 X173.822 Y63.07 E.84818
G1 X173.288 Y63.07 E.01676
G1 X192.93 Y82.712 E.87187
G1 X192.93 Y83.246 E.01676
G1 X172.754 Y63.07 E.89557
G1 X172.221 Y63.07 E.01676
G1 X192.93 Y83.779 E.91927
G1 X192.93 Y84.313 E.01676
G1 X171.687 Y63.07 E.94296
G1 X171.153 Y63.07 E.01676
G1 X192.93 Y84.847 E.96666
G1 X192.93 Y85.381 E.01676
G1 X170.619 Y63.07 E.99036
G1 X170.085 Y63.07 E.01676
G1 X192.93 Y85.915 E1.01405
G1 X192.93 Y86.449 E.01676
G1 X169.551 Y63.07 E1.03775
G1 X169.018 Y63.07 E.01676
G1 X192.93 Y86.982 E1.06144
G1 X192.93 Y87.516 E.01676
G1 X168.484 Y63.07 E1.08514
G1 X167.95 Y63.07 E.01676
G1 X192.93 Y88.05 E1.10884
G1 X192.93 Y88.584 E.01676
G1 X167.416 Y63.07 E1.13253
G1 X166.882 Y63.07 E.01676
G1 X192.93 Y89.118 E1.15623
G1 X192.93 Y89.652 E.01676
G1 X166.348 Y63.07 E1.17993
G1 X165.815 Y63.07 E.01676
G1 X192.93 Y90.185 E1.20362
G1 X192.93 Y90.719 E.01676
G1 X165.281 Y63.07 E1.22732
G1 X164.747 Y63.07 E.01676
G1 X192.93 Y91.253 E1.25101
G1 X192.93 Y91.787 E.01676
G1 X164.213 Y63.07 E1.27471
G1 X163.679 Y63.07 E.01676
G1 X192.93 Y92.321 E1.29841
G1 X192.93 Y92.855 E.01676
G1 X163.145 Y63.07 E1.3221
G1 X162.612 Y63.07 E.01676
M73 P2 R111
M73 Q2 S111
G1 X192.93 Y93.388 E1.3458
G1 X192.93 Y93.922 E.01676
G1 X162.078 Y63.07 E1.3695
G1 X161.544 Y63.07 E.01676
G1 X192.93 Y94.456 E1.39319
G1 X192.93 Y94.99 E.01676
M73 P2 R110
G1 X161.01 Y63.07 E1.41689
G1 X160.476 Y63.07 E.01676
M73 Q2 S110
G1 X192.93 Y95.524 E1.44058
G1 X192.93 Y96.058 E.01676
G1 X159.942 Y63.07 E1.46428
G1 X159.409 Y63.07 E.01676
G1 X192.93 Y96.591 E1.48798
G1 X192.93 Y97.125 E.01676
G1 X158.875 Y63.07 E1.51167
G1 X158.341 Y63.07 E.01676
G1 X192.93 Y97.659 E1.53537
G1 X192.93 Y98.193 E.01676
G1 X157.807 Y63.07 E1.55907
G1 X157.273 Y63.07 E.01676
G1 X192.93 Y98.727 E1.58276
G1 X192.93 Y99.261 E.01676
G1 X156.739 Y63.07 E1.60646
G1 X156.206 Y63.07 E.01676
G1 X192.93 Y99.794 E1.63015
G1 X192.93 Y100.328 E.01676
G1 X155.672 Y63.07 E1.65385
G1 X155.138 Y63.07 E.01676
G1 X192.93 Y100.862 E1.67755
G1 X192.93 Y101.396 E.01676
G1 X154.604 Y63.07 E1.70124
G1 X154.07 Y63.07 E.01676
G1 X192.93 Y101.93 E1.72494
G1 X192.93 Y102.464 E.01676
G1 X153.536 Y63.07 E1.74864
G1 X153.003 Y63.07 E.01676
G1 X192.93 Y102.997 E1.77233
G1 X192.93 Y103.531 E.01676
G1 X152.469 Y63.07 E1.79603
G1 X151.935 Y63.07 E.01676
G1 X192.93 Y104.065 E1.81972
G1 X192.93 Y104.599 E.01676
G1 X151.401 Y63.07 E1.84342
G1 X150.867 Y63.07 E.01676
G1 X192.93 Y105.133 E1.86712
G1 X192.93 Y105.667 E.01676
G1 X150.333 Y63.07 E1.89081
G1 X149.8 Y63.07 E.01676
G1 X192.93 Y106.2 E1.91451
G1 X192.93 Y106.734 E.01676
G1 X149.266 Y63.07 E1.93821
G1 X148.732 Y63.07 E.01676
M73 P3 R109
M73 Q3 S109
G1 X192.93 Y107.268 E1.9619
G1 X192.93 Y107.802 E.01676
G1 X148.198 Y63.07 E1.9856
G1 X147.664 Y63.07 E.01676
G1 X192.93 Y108.336 E2.00929
G1 X192.93 Y108.87 E.01676
G1 X147.13 Y63.07 E2.03299
G1 X146.596 Y63.07 E.01676
G1 X192.93 Y109.404 E2.05669
G1 X192.93 Y109.937 E.01676
G1 X146.063 Y63.07 E2.08038
G1 X145.529 Y63.07 E.01676
G1 X192.93 Y110.471 E2.10408
G1 X192.93 Y111.005 E.01676
G1 X144.995 Y63.07 E2.12778
G1 X144.461 Y63.07 E.01676
G1 X192.93 Y111.539 E2.15147
G1 X192.93 Y112.073 E.01676
G1 X143.927 Y63.07 E2.17517
G1 X143.393 Y63.07 E.01676
G1 X192.93 Y112.607 E2.19886
G1 X192.93 Y113.14 E.01676
G1 X142.86 Y63.07 E2.22256
G1 X142.326 Y63.07 E.01676
G1 X192.93 Y113.674 E2.24626
G1 X192.93 Y114.208 E.01676
G1 X141.792 Y63.07 E2.26995
G1 X141.258 Y63.07 E.01676
G1 X192.93 Y114.742 E2.29365
G1 X192.93 Y115.276 E.01676
G1 X140.724 Y63.07 E2.31735
G1 X140.19 Y63.07 E.01676
G1 X192.93 Y115.81 E2.34104
G1 X192.93 Y116.343 E.01676
M73 P3 R108
M73 Q3 S108
G1 X139.657 Y63.07 E2.36474
G1 X139.123 Y63.07 E.01676
G1 X192.93 Y116.877 E2.38843
G1 X192.93 Y117.411 E.01676
M73 P4 R108
M73 Q4 S108
G1 X138.589 Y63.07 E2.41213
G1 X138.055 Y63.07 E.01676
G1 X192.93 Y117.945 E2.43583
G1 X192.93 Y118.479 E.01676
G1 X137.521 Y63.07 E2.45952
G1 X136.987 Y63.07 E.01676
G1 X192.93 Y119.013 E2.48322
G1 X192.93 Y119.546 E.01676
G1 X136.454 Y63.07 E2.50692
G1 X135.92 Y63.07 E.01676
G1 X192.93 Y120.08 E2.53061
G1 X192.93 Y120.614 E.01676
G1 X135.386 Y63.07 E2.55431
G1 X134.852 Y63.07 E.01676
G1 X192.93 Y121.148 E2.578
G1 X192.93 Y121.682 E.01676
G1 X134.318 Y63.07 E2.6017
G1 X133.784 Y63.07 E.01676
G1 X192.93 Y122.216 E2.6254
G1 X192.93 Y122.749 E.01676
G1 X133.251 Y63.07 E2.64909
G1 X132.717 Y63.07 E.01676
G1 X192.93 Y123.283 E2.67279
G1 X192.93 Y123.817 E.01676
G1 X132.183 Y63.07 E2.69649
G1 X131.649 Y63.07 E.01676
M73 P4 R107
M73 Q4 S107
G1 X192.93 Y124.351 E2.72018
G1 X192.93 Y124.885 E.01676
G1 X131.115 Y63.07 E2.74388
G1 X130.581 Y63.07 E.01676
G1 X192.93 Y125.419 E2.76757
G1 X192.93 Y125.952 E.01676
G1 X130.048 Y63.07 E2.79127
G1 X129.514 Y63.07 E.01676
M73 P5 R107
M73 Q5 S107
G1 X192.93 Y126.486 E2.81497
G1 X192.93 Y127.02 E.01676
G1 X128.98 Y63.07 E2.83866
G1 X128.446 Y63.07 E.01676
G1 X192.93 Y127.554 E2.86236
G1 X192.93 Y128.088 E.01676
G1 X127.912 Y63.07 E2.88606
G1 X127.378 Y63.07 E.01676
G1 X192.93 Y128.622 E2.90975
G1 X192.93 Y129.155 E.01676
G1 X126.845 Y63.07 E2.93345
G1 X126.311 Y63.07 E.01676
G1 X192.93 Y129.689 E2.95714
G1 X192.93 Y130.223 E.01676
G1 X125.777 Y63.07 E2.98084
G1 X125.243 Y63.07 E.01676
G1 X192.93 Y130.757 E3.00454
G1 X192.93 Y131.291 E.01676
M73 P5 R106
M73 Q5 S106
G1 X124.709 Y63.07 E3.02823
G1 X124.175 Y63.07 E.01676
G1 X192.93 Y131.825 E3.05193
G1 X192.93 Y132.358 E.01676
G1 X123.642 Y63.07 E3.07563
G1 X123.108 Y63.07 E.01676
G1 X192.93 Y132.892 E3.09932
G1 X192.93 Y133.426 E.01676
G1 X122.574 Y63.07 E3.12302
G1 X122.04 Y63.07 E.01676
M73 P6 R106
M73 Q6 S106
G1 X192.93 Y133.96 E3.14671
G1 X192.93 Y134.494 E.01676
G1 X121.506 Y63.07 E3.17041
G1 X120.972 Y63.07 E.01676
G1 X192.93 Y135.028 E3.19411
G1 X192.93 Y135.561 E.01676
G1 X120.439 Y63.07 E3.2178
G1 X119.905 Y63.07 E.01676
G1 X192.93 Y136.095 E3.2415
G1 X192.93 Y136.629 E.01676
G1 X119.371 Y63.07 E3.2652
G1 X118.837 Y63.07 E.01676
G1 X192.93 Y137.163 E3.28889
G1 X192.93 Y137.697 E.01676
M73 P6 R105
M73 Q6 S105
G1 X118.303 Y63.07 E3.31259
G1 X117.769 Y63.07 E.01676
G1 X192.93 Y138.231 E3.33628
G1 X192.93 Y138.764 E.01676
G1 X117.236 Y63.07 E3.35998
G1 X116.702 Y63.07 E.01676
G1 X192.93 Y139.298 E3.38368
G1 X192.93 Y139.832 E.01676
G1 X116.168 Y63.07 E3.40737
G1 X115.634 Y63.07 E.01676
G1 X192.93 Y140.366 E3.43107
G1 X192.93 Y140.9 E.01676
M73 P7 R105
M73 Q7 S105
G1 X115.1 Y63.07 E3.45477
G1 X114.566 Y63.07 E.01676
G1 X192.93 Y141.434 E3.47846
G1 X192.93 Y141.968 E.01676
G1 X114.032 Y63.07 E3.50216
G1 X113.499 Y63.07 E.01676
G1 X192.93 Y142.501 E3.52585
G1 X192.93 Y143.035 E.01676
G1 X112.965 Y63.07 E3.54955
G1 X112.431 Y63.07 E.01676
M73 P7 R104
M73 Q7 S104
G1 X192.93 Y143.569 E3.57325
G1 X192.93 Y144.103 E.01676
G1 X111.897 Y63.07 E3.59694
G1 X111.363 Y63.07 E.01676
G1 X192.93 Y144.637 E3.62064
G1 X192.93 Y145.171 E.01676
G1 X110.829 Y63.07 E3.64434
G1 X110.296 Y63.07 E.01676
G1 X192.93 Y145.704 E3.66803
G1 X192.93 Y146.238 E.01676
G1 X109.762 Y63.07 E3.69173
G1 X109.228 Y63.07 E.01676
G1 X192.93 Y146.772 E3.71542
G1 X192.93 Y146.93 E.00496
M73 P8 R104
M73 Q8 S104
G1 X192.554 Y146.93 E.01179
G1 X108.694 Y63.07 E3.72244
G1 X108.16 Y63.07 E.01676
G1 X192.021 Y146.93 E3.72244
G1 X191.487 Y146.93 E.01676
G1 X107.626 Y63.07 E3.72244
G1 X107.093 Y63.07 E.01676
M73 P8 R103
M73 Q8 S103
G1 X190.953 Y146.93 E3.72244
G1 X190.419 Y146.93 E.01676
G1 X106.559 Y63.07 E3.72244
G1 X106.025 Y63.07 E.01676
G1 X189.885 Y146.93 E3.72244
G1 X189.351 Y146.93 E.01676
G1 X105.491 Y63.07 E3.72244
G1 X104.957 Y63.07 E.01676
G1 X188.818 Y146.93 E3.72244
G1 X188.284 Y146.93 E.01676
G1 X104.423 Y63.07 E3.72244
G1 X103.89 Y63.07 E.01676
G1 X187.75 Y146.93 E3.72244
G1 X187.216 Y146.93 E.01676
G1 X103.356 Y63.07 E3.72244
G1 X102.822 Y63.07 E.01676
M73 P9 R103
M73 Q9 S103
G1 X186.682 Y146.93 E3.72244
G1 X186.148 Y146.93 E.01676
G1 X102.288 Y63.07 E3.72244
G1 X101.754 Y63.07 E.01676
M73 P9 R102
M73 Q9 S102
G1 X185.615 Y146.93 E3.72244
G1 X185.081 Y146.93 E.01676
G1 X101.22 Y63.07 E3.72244
G1 X100.687 Y63.07 E.01676
G1 X184.547 Y146.93 E3.72244
G1 X184.013 Y146.93 E.01676
G1 X100.153 Y63.07 E3.72244
G1 X99.619 Y63.07 E.01676
G1 X183.479 Y146.93 E3.72244
G1 X182.945 Y146.93 E.01676
G1 X99.085 Y63.07 E3.72244
G1 X98.551 Y63.07 E.01676
G1 X182.412 Y146.93 E3.72244
G1 X181.878 Y146.93 E.01676
G1 X98.017 Y63.07 E3.72244
G1 X97.484 Y63.07 E.01676
G1 X181.344 Y146.93 E3.72244
G1 X180.81 Y146.93 E.01676
G1 X96.95 Y63.07 E3.72244
G1 X96.416 Y63.07 E.01676
M73 P10 R101
M73 Q10 S101
G1 X180.276 Y146.93 E3.72244
G1 X179.742 Y146.93 E.01676
G1 X95.882 Y63.07 E3.72244
G1 X95.348 Y63.07 E.01676
G1 X179.208 Y146.93 E3.72244
G1 X178.675 Y146.93 E.01676
G1 X94.814 Y63.07 E3.72244
G1 X94.281 Y63.07 E.01676
G1 X178.141 Y146.93 E3.72244
G1 X177.607 Y146.93 E.01676
G1 X93.747 Y63.07 E3.72244
G1 X93.213 Y63.07 E.01676
G1 X177.073 Y146.93 E3.72244
G1 X176.539 Y146.93 E.01676
G1 X92.679 Y63.07 E3.72244
G1 X92.145 Y63.07 E.01676
G1 X176.005 Y146.93 E3.72244
G1 X175.472 Y146.93 E.01676
G1 X91.611 Y63.07 E3.72244
G1 X91.078 Y63.07 E.01676
M73 P10 R100
M73 Q10 S100
G1 X174.938 Y146.93 E3.72244
G1 X174.404 Y146.93 E.01676
M73 P11 R100
M73 Q11 S100
G1 X90.544 Y63.07 E3.72244
G1 X90.01 Y63.07 E.01676
G1 X173.87 Y146.93 E3.72244
G1 X173.336 Y146.93 E.01676
G1 X89.476 Y63.07 E3.72244
G1 X88.942 Y63.07 E.01676
G1 X172.802 Y146.93 E3.72244
G1 X172.269 Y146.93 E.01676
G1 X88.408 Y63.07 E3.72244
G1 X87.875 Y63.07 E.01676
G1 X171.735 Y146.93 E3.72244
G1 X171.201 Y146.93 E.01676
G1 X87.341 Y63.07 E3.72244
G1 X86.807 Y63.07 E.01676
G1 X170.667 Y146.93 E3.72244
G1 X170.133 Y146.93 E.01676
G1 X86.273 Y63.07 E3.72244
G1 X85.739 Y63.07 E.01676
M73 P11 R99
M73 Q11 S99
G1 X169.599 Y146.93 E3.72244
G1 X169.066 Y146.93 E.01676
G1 X85.205 Y63.07 E3.72244
G1 X84.672 Y63.07 E.01676
G1 X168.532 Y146.93 E3.72244
G1 X167.998 Y146.93 E.01676
M73 P12 R99
M73 Q12 S99
G1 X84.138 Y63.07 E3.72244
G1 X83.604 Y63.07 E.01676
G1 X167.464 Y146.93 E3.72244
G1 X166.93 Y146.93 E.01676
G1 X83.07 Y63.07 E3.72244
G1 X82.536 Y63.07 E.01676
G1 X166.396 Y146.93 E3.72244
G1 X165.863 Y146.93 E.01676
G1 X82.002 Y63.07 E3.72244
G1 X81.469 Y63.07 E.01676
G1 X165.329 Y146.93 E3.72244
G1 X164.795 Y146.93 E.01676
G1 X80.935 Y63.07 E3.72244
G1 X80.401 Y63.07 E.01676
G1 X164.261 Y146.93 E3.72244
G1 X163.727 Y146.93 E.01676
M73 P12 R98
M73 Q12 S98
G1 X79.867 Y63.07 E3.72244
G1 X79.333 Y63.07 E.01676
G1 X163.193 Y146.93 E3.72244
G1 X162.66 Y146.93 E.01676
G1 X78.799 Y63.07 E3.72244
G1 X78.265 Y63.07 E.01676
M73 P13 R98
M73 Q13 S98
G1 X162.126 Y146.93 E3.72244
G1 X161.592 Y146.93 E.01676
G1 X77.732 Y63.07 E3.72244
G1 X77.198 Y63.07 E.01676
G1 X161.058 Y146.93 E3.72244
G1 X160.524 Y146.93 E.01676
G1 X76.664 Y63.07 E3.72244
G1 X76.13 Y63.07 E.01676
G1 X159.99 Y146.93 E3.72244
G1 X159.457 Y146.93 E.01676
G1 X75.596 Y63.07 E3.72244
G1 X75.062 Y63.07 E.01676
G1 X158.923 Y146.93 E3.72244
G1 X158.389 Y146.93 E.01676
M73 P13 R97
M73 Q13 S97
G1 X74.529 Y63.07 E3.72244
G1 X73.995 Y63.07 E.01676
G1 X157.855 Y146.93 E3.72244
G1 X157.321 Y146.93 E.01676
G1 X73.461 Y63.07 E3.72244
G1 X72.927 Y63.07 E.01676
G1 X156.787 Y146.93 E3.72244
G1 X156.254 Y146.93 E.01676
M73 P14 R97
M73 Q14 S97
G1 X72.393 Y63.07 E3.72244
G1 X71.859 Y63.07 E.01676
G1 X155.72 Y146.93 E3.72244
G1 X155.186 Y146.93 E.01676
G1 X71.326 Y63.07 E3.72244
G1 X70.792 Y63.07 E.01676
G1 X154.652 Y146.93 E3.72244
G1 X154.118 Y146.93 E.01676
G1 X70.258 Y63.07 E3.72244
G1 X69.724 Y63.07 E.01676
G1 X153.584 Y146.93 E3.72244
G1 X153.051 Y146.93 E.01676
M73 P14 R96
M73 Q14 S96
G1 X69.19 Y63.07 E3.72244
G1 X68.656 Y63.07 E.01676
G1 X152.517 Y146.93 E3.72244
G1 X151.983 Y146.93 E.01676
G1 X68.123 Y63.07 E3.72244
G1 X67.589 Y63.07 E.01676
G1 X151.449 Y146.93 E3.72244
G1 X150.915 Y146.93 E.01676
G1 X67.055 Y63.07 E3.72244
G1 X66.521 Y63.07 E.01676
G1 X150.381 Y146.93 E3.72244
